!!!OTL: Exultet
!!!SMS: Pisa, Museo dell'Opera del Duomo, Exultet 2
**kern	**silbe
*	*LLatin
*staff4	*staff4
!P2	!P2
=1-	=1-
*clefGv2	*
*k[]	*
4F	E-
4G	XUL
4G	-TET
8G	iam
8F	an-
=2-	=2-
(8F	-ge-
8G)	.
8G	-li-
8G	-ca
(8G	tur-
8A)	.
(8A	-ba
8G)	.
=3-	=3-
4F	ce-
(4G	-lo-
8A	.
8G)	.
4F	-rum.
=4-	=4-
4F	e-
4A	xul
4G	-tent
4G	di-
=5-	=5-
(4G	-vi-
4A)	.
(8A	-na
8G)	.
4F	my-
=6-	=6-
(8G	-ste-
8A)	.
(4G	-ri-
4F)	.
4F	-a.
=7-	=7-
8F	et
8F	pro
8A	tan-
8G	-ti
8G	re-
8G	-gis
8F	vic-
(16F	-to-
16G)	.
=8-	=8-
8G	-ri-
8G	-a.
16F	tu-
16G	.
8F	-ba
8G	in-
8F	-to-
(16G	-net
16A	.
16G	.
16A)	.
=9-	=9-
16G	.
8F	.
(16F	sa-
16G	.
8A)	.
(16G	-lu-
16A	.
16G)	.
4F	-ta-
8F	-ris.
=10-	=10-
(8G	Gau-
8A)	.
8G	-de-
8G	-at
8G	se
8G	tan-
8F	-tis
(16F	tel-
16G)	.
=11-	=11-
8G	-lus
8G	ir-
8G	-ra-
8G	-di-
(8G	-a-
8A)	.
(8A	-ta
8G)	.
=12-	=12-
4F	ful-
(8G	-go-
8A)	.
(8G	-ri-
8F)	.
4F	-bus.
=13-	=13-
8F	et
8F	e-
8A	-ter-
8G	-ni
(8F	re-
8G)	.
8G	-gis
8G	splen-
=14-	=14-
(8G	-do-
8A)	.
(4A	-re
4G)	.
4F	lu-
=15-	=15-
(4G	-stra-
4A	.
4G)	.
4F	-ta
=16-	=16-
8F	to-
8A	-ti-
8G	-us
8G	or-
8G	-bis
8F	se
(8F	sen-
8G)	.
=17-	=17-
8G	-ti-
8G	-at
8G	a-
8F	-mi-
(8G	-sis-
8A	.
8G	.
8A)	.
=18-	=18-
8G	.
8F	.
(16G	-se
8A)	.
(16G	ca-
16A	.
16G)	.
8F	-li-
(16E	-gi-
16F)	.
8F	-nem.
=19-	=19-
(16G	Le-
16A)	.
8G	-te-
8G	-tur
8G	et
(16G	ma-
16A)	.
(16A	-ter
16G)	.
8F	ec-
(16G	-cle-
16A)	.
=20-	=20-
(16G	-si-
16F)	.
16F	-a
16A	tan-
16G	-ti
(16F	lu-
16G)	.
16G	-mi-
16G	-nis
8G	a-
16G	-dor-
(16G	-na-
16A)	.
(16A	-ta
16G)	.
=21-	=21-
4F	ful-
(8G	-go-
8A)	.
(8G	.
8F)	-ri-
4F	-bus.
=22-	=22-
8F	et
8A	mag-
8G	-nis
8G	po-
8G	-pu-
8G	-lo-
8F	-rum
(16F	vo-
16G)	.
=23-	=23-
8G	-ci-
8G	-bus
8F	hec
(8G	au-
8A	.
8G	.
8A)	.
8G	.
=24-	=24-
8F	.
8A	-la
(8G	re-
8A	.
8G)	.
8F	-sul-
4F	-tet.
=25-	=25-
(8G	Qua-
8A)	.
8G	prop
8G	-ter
8G	a-
8G	-stan-
8G	-ti-
8F	-bus
=26-	=26-
(8F	vo-
8G)	.
4G	-bis
(8G	fra-
8A)	.
(8A	-tres
8G)	.
=27-	=27-
4F	ka-
(8G	-ris-
8A)	.
(8G	-si-
8F)	.
4F	-mi.
=28-	=28-
8F	ad
8A	tam
8G	mi-
8G	-ram
8G	sanc-
8F	-ti
(8F	hu-
8G)	.
=29-	=29-
8G	-ius
8G	lu-
4G	-mi-
(8G	-nis
8A)	.
(8A	cla-
8G)	.
=30-	=30-
4F	-ri-
(4G	-ta-
8A	.
8G)	.
4F	-tem.
=31-	=31-
8F	U-
8A	-na
8G	me-
8F	-cum
8G	que-
8G	-so
8G	de-
8G	-i
=32-	=32-
16G	om-
16G	-ni-
16F	-po-
(16F	-ten-
16G)	.
16G	-tis
8G	mi-
16G	-se-
16F	-ri-
16G	-cor-
16F	-di-
(16G	-am
16A	.
16G	.
16A)	.
=33-	=33-
8G	.
8F	.
(8F	in-
16G	.
16A)	.
(8G	-vo-
16A	.
16G)	.
8F	-ca-
8F	-te.
=34-	=34-
(16G	Ut
16A)	.
16G	qui
16G	me
8G	non
16G	me-
8F	-is
(16F	me-
16G)	.
16G	-ri-
8G	-tis
16G	in-
16G	-tra
=35-	=35-
16G	le-
16G	-vi-
8G	-ta-
8F	-rum
(16F	nu-
16G)	.
8G	-me-
8G	-rum.
8G	dig-
16G	-na-
16G	-tus
=36-	=36-
(16G	est
16A)	.
(8A	ag-
8G)	.
8F	-gre-
(8G	-ga-
8A	.
8G)	.
8F	-re.
=37-	=37-
4A	lu-
4G	-mi-
4F	-nis
(8F	su-
8G)	.
=38-	=38-
4G	-i
4G	gra-
(8G	-ti-
8A)	.
(8A	-am
8G)	.
=39-	=39-
4F	in-
(4G	-fun-
8A	.
8G)	.
4F	-dens.
=40-	=40-
4A	ce-
8G	-re-
8G	-i
8G	hu-
8F	-ius
(8F	lau-
8G)	.
=41-	=41-
8G	-de
8F	im-
(8G	-ple-
8A	.
8G	.
8A)	.
8G	.
8F	.
=42-	=42-
(16F	-re
16G	.
8A)	.
(8G	pre-
8A	.
8G)	.
8F	-ci-
(16E	-pi-
16F)	.
8F	-at.
=43-	=43-
(16G	Per
16A)	.
8G	do-
8G	-mi-
8G	-num
8G	no-
8G	-strum
8G	ie-
8F	-sum
=44-	=44-
(16F	chri-
16G)	.
8G	-stum
(8G	fi-
8A)	.
(4A	-li-
4G)	.
=45-	=45-
4F	-um
(8G	su-
8A	.
8G)	.
4F	-um.
=46-	=46-
8F	qui
8F	cum
8A	e-
8G	-o
(16F	vi-
16G)	.
8F	-vit
(16G	et
16A)	.
(16A	reg-
16G)	.
=47-	=47-
8F	-nat
8A	de-
8F	-us
8F	in
8F	u-
8F	-ni-
8A	-ta-
8G	-te
=48-	=48-
(16G	spi-
16A)	.
(16A	-ri-
16G)	.
8F	-tus
(8G	sanc-
8A	.
8G)	.
8F	-ti.
=49-	=49-
8F	Per
8G	om-
8G	-ni-
8F	-a
8G	se-
8F	-cu-
(8G	-la
8A	.
=50-	=50-
8G	.
8A)	.
8G	.
8F	.
(8F	se-
16G	.
16A)	.
(8G	-cu-
8A	.
=51-	=51-
8G)	.
8F	-lo-
4F	-rum.
4E	A-
4F	-men.
=52-	=52-
8F	Do-
(8G	-mi-
8A)	.
(8B	-nus
8A)	.
(16G	vo-
16A)	.
8G	.
8F	.
=53-	=53-
(16G	-bi-
16A	.
8G)	.
8F	-scum.
8F	Et
(16G	cum
16A)	.
(8B	spi-
16A)	.
(8B	-ri-
16G)	.
=54-	=54-
(8G	-tu
8A	.
8B	.
8A)	.
(8G	tu-
8A)	.
4G	-o.
=55-	=55-
(16F	Sur-
16G	.
16A)	.
(16B	.
16A)	.
(16B	-sum
16A)	.
(16G	.
16F)	.
(8G	cor-
8A)	.
(8G	-da.
16F)	.
=56-	=56-
8F	Ha-
(16G	-be-
8A)	.
(16B	-mus
8A)	.
(16B	ad
8G)	.
(16G	do-
16A	.
16B	.
8A)	.
=57-	=57-
(4G	-mi-
4A)	.
(4G	-num.
4F)	.
=58-	=58-
(16F	Gra-
16G	.
16A)	.
(16G	-ti-
16F)	.
(16F	-as
16G)	.
(16B	a-
16A)	.
(16G	-ga-
16A)	.
16A	-mus
(16A	do-
16B	.
16A)	.
16A	-mi-
=59-	=59-
(16G	-no
16F)	.
(16F	de-
16G)	.
8A	-o
(16G	no-
16A)	.
8G	-stro.
(16F	Dig-
16G	.
16A)	.
16B	.
8A	-num
=60-	=60-
(8B	et
8G)	.
16A	ius-
(16G	.
8B	.
8A)	.
(8G	-tum
16A)	.
(8G	est.
16F)	.
=61-	=61-
(8F	Ve-
8G	.
8A)	.
(8G	-re
8F)	.
(16G	qui-
16A)	.
(16B	-a
16A)	.
(16G	dig-
16A)	.
=62-	=62-
8A	-num
(16B	et
16G)	.
(16A	iu-
16B	.
8A)	.
(16G	-stum
16A)	.
(16G	est.
16F)	.
8G	e-
8F	-quum
=63-	=63-
(16G	et
16A	.
16G	.
16A)	.
16G	.
16F	.
8A	sa-
(8G	-lu-
16A	.
16G)	.
8F	-ta-
8F	-re
=64-	=64-
(8G	In-
8A)	.
4G	-vi-
8G	-si-
4G	-bi-
8G	-lem
=65-	=65-
8G	de-
8F	-um
(8F	pa-
8G)	.
4G	-trem
(8G	om-
8A)	.
=66-	=66-
(8A	-ni-
8G)	.
8F	-po-
(8G	-ten-
8A	.
8G)	.
4F	-tem.
=67-	=67-
8F	fi-
8F	-li-
8A	-um-
8G	-que
(16F	e-
16G)	.
8G	-ius
8G	u-
8F	-ni-
=68-	=68-
(8F	-ge-
8G)	.
8G	-ni-
8G	-tum
8G	do-
8G	-mi-
8G	-num
8G	no-
=69-	=69-
(16G	-strum
16A)	.
(8A	ie-
8G)	.
8F	-sum
(8G	chri-
8A	.
8G)	.
8F	-stum.
=70-	=70-
16A	to-
16G	-to
(16F	cor-
16G)	.
16G	-dis
16G	ac
(16G	men-
16A)	.
(16A	-tis
16G)	.
8F	af-
(16G	-fec-
16A	.
16G)	.
16F	-tum.
=71-	=71-
8F	et
8A	vo-
8G	-cis
8G	mi-
8F	-ni-
8G	-ste-
8F	-ri-
(16G	-o
16A	.
=72-	=72-
16G	.
16A)	.
16G	.
8F	.
(16F	per-
16G	.
8A)	.
(16G	-so-
16A	.
16G)	.
8F	-na-
8F	-re.
=73-	=73-
(16G	Qui
16A)	.
8G	pro
8G	no-
4G	-bis
8G	e-
4G	-ter-
=74-	=74-
8F	-no
(16F	pa-
16G)	.
8G	-tri
8G	a-
8G	-de
(16G	de-
16A)	.
(16A	-bi-
16G)	.
8F	-tum
=75-	=75-
(4G	sol-
4A	.
4G)	.
4F	-vit.
=76-	=76-
8F	et
8A	ve-
16G	-te-
8G	-ris
8G	pi-
16G	-a-
8G	-cu-
(16G	-lis
16A)	.
(16A	cau-
16G)	.
=77-	=77-
8F	-ti-
(16G	-o-
16A	.
16G)	.
8F	-nem.
8G	pi-
16G	-o
8F	cru-
(16G	-o-
16A	.
16G	.
16A)	.
=78-	=78-
16G	.
16F	.
8A	-re
(16G	de-
16A	.
16G)	.
8F	-ter-
8F	-sit.
=79-	=79-
1r	.
=80-	=80-
1r	.
=81-	=81-
1r	.
=82-	=82-
1r	.
=83-	=83-
1r	.
=84-	=84-
1r	.
=85-	=85-
1r	.
=86-	=86-
1r	.
=87-	=87-
1r	.
=88-	=88-
1r	.
=89-	=89-
1r	.
=90-	=90-
1r	.
=91-	=91-
1r	.
=92-	=92-
1r	.
=93-	=93-
1r	.
=94-	=94-
1r	.
=95-	=95-
1r	.
=96-	=96-
1r	.
=97-	=97-
1r	.
=98-	=98-
1r	.
=99-	=99-
1r	.
=100-	=100-
1r	.
=101-	=101-
1r	.
=102-	=102-
1r	.
=103-	=103-
1r	.
=104-	=104-
1r	.
=105-	=105-
1r	.
=106-	=106-
1r	.
=107-	=107-
1r	.
=108-	=108-
1r	.
=109-	=109-
(16G	Hec
8A)	.
(16G	.
8F)	.
(16G	nox
16A	.
8G)	.
8F	est.
8F	in
8A	qua
=110-	=110-
8G	de-
(16F	-struc-
16G)	.
8G	-tis
(8G	vin-
8A)	.
(8A	-cu-
8G)	.
8F	-lis
=111-	=111-
(4G	mor-
4A	.
4G)	.
4F	-tis.
=112-	=112-
4A	chri-
8G	-stus
8F	ab
8G	in-
4G	-fe-
8F	-ris
=113-	=113-
(8G	vic-
8A	.
8G	.
8A)	.
8G	.
8F	.
(8F	-tor
16G	.
16A)	.
=114-	=114-
(4G	a-
8A	.
8G)	.
4F	-scen-
4F	-dit.
=115-	=115-
(4G	Ni-
4A)	.
4G	-chil
4G	e-
=116-	=116-
4G	-nim
4G	no-
(8G	-bis
8A)	.
(8A	na-
8G)	.
=117-	=117-
4F	-sci
(8G	pro-
8A)	.
(8G	-fu-
8F)	.
4F	-it.
=118-	=118-
4F	ni-
4F	-si
4G	re-
4F	-di-
=119-	=119-
(8G	-mi
8A	.
8G	.
8A)	.
8G	.
8F	.
4A	pro-
=120-	=120-
(4G	-fu-
8A	.
8G)	.
4F	-is-
4F	-set.
=121-	=121-
(16G	O
16A)	.
8G	mi-
8G	-ra
8G	cir-
8F	-ca
8G	nos
8G	tu-
8G	-e
=122-	=122-
8G	pi-
8G	-e-
(8G	-ta-
8A)	.
(8A	-tis
8G)	.
4F	di-
=123-	=123-
(4G	-gna-
8A)	.
(4G	-ti-
8F)	.
4F	-o.
=124-	=124-
8A	o
8G	i-
8G	-ne-
8F	-sti-
(8F	-ma-
8G)	.
8G	-bi-
8G	-lis
=125-	=125-
8G	di-
8G	-lec-
4G	-ti-
(8G	-o
8A)	.
(8A	ca-
8G)	.
=126-	=126-
4F	-ri-
(4G	-ta-
8A	.
8G)	.
4F	-tis.
=127-	=127-
8F	ut
8A	ser-
8G	-vum
8F	re-
(8F	-di-
8G)	.
8G	-me-
8G	-res
=128-	=128-
8G	fi-
8F	-li-
(8G	-um
8A	.
8G	.
8A)	.
8G	.
8F	.
=129-	=129-
(8F	tra-
8G	.
8A)	.
(8G	-di-
8A	.
8G)	.
8F	-di-
8F	-sti.
=130-	=130-
(8G	O
8A)	.
4G	cer-
4G	-te
4G	ne-
=131-	=131-
8G	-ces-
8G	-sa-
8G	-ri-
8G	-um
8F	a-
8G	-de
8G	pec-
(16G	-ca-
16A)	.
=132-	=132-
(8A	-tum
8G)	.
8F	no-
(8G	strum
8A	.
8G)	.
4F	-que.
=133-	=133-
8F	quod
8G	chri-
8F	-sti
(8G	mor-
8A	.
8G	.
8A)	.
8G	.
=134-	=134-
8F	.
4A	-te
(8G	de-
16A	.
16G)	.
8F	-le-
(16E	-tum
16F)	.
8F	est.
=135-	=135-
(16G	O
16A)	.
(8A	fe-
8G)	.
8F	-lix
(8G	cul-
8A	.
8G)	.
8F	-pa
=136-	=136-
8F	que
8A	ta-
8G	-lem
8G	ac
8G	tan-
8F	-tum
(16F	me-
16G)	.
8G	-ru-
=137-	=137-
8G	-it
8F	ha-
4G	-be-
8F	-re
(16G	.
16A	.
8G	.
8A)	.
=138-	=138-
16G	.
8F	.
(16F	re-
16G	.
8A)	.
(8G	-demp-
16A	.
8G)	.
8F	-to-
8F	-rem.
=139-	=139-
16A	O
16B	.
16A	.
16G	.
16F	be-
(16G	-a-
16A)	.
(16G	-ta
16F)	.
8F	nox
8F	que
8A	so-
16G	-la
=140-	=140-
(16F	me-
16G)	.
8G	-ru-
8G	-it
8G	sci-
4G	-re
(8G	tem-
8A)	.
=141-	=141-
(8A	-pus
8G)	.
4F	et
(8G	ho-
8A	.
8G)	.
8F	-ra
=142-	=142-
8F	in
8A	qua
8G	chri-
8G	-stus
8F	ab
8G	in-
4F	-fe-
=143-	=143-
(8G	-ris
8A	.
8G	.
8A)	.
8G	.
8F	.
(8F	re-
16G	.
16A)	.
=144-	=144-
(4G	-sur-
8A	.
8G)	.
4F	-re-
4F	-xit
=145-	=145-
16A	Hec
16B	.
16A	.
(16G	.
8F)	.
(16G	nox
16A	.
16G)	.
8F	est
16A	de
16B	.
16A	.
16G	.
16F	qua
=146-	=146-
(16G	scrip-
16A)	.
(16G	-tum
16F)	.
8F	est.
8F	et
8A	nox
8G	ut
(16F	di-
16G)	.
8G	-es
=147-	=147-
(8G	il-
16A)	.
(8A	-lu-
&(16G&))	.
8F	-mi-
(8G	-na-
16A)	.
(8G	-bi-
16F)	.
16F	-tur.
=148-	=148-
8F	et
8A	nox
8G	il-
8G	-lu-
8G	-mi-
8G	-na-
8G	-ti-
8F	-o
=149-	=149-
(16F	me-
16G)	.
8G	-a
8G	in
8F	de-
(8G	-li-
8A	.
16G	.
16A)	.
16G	.
16F	.
=150-	=150-
(8F	-ci-
16G	.
8A)	.
(16G	-is
16A	.
16G)	.
4F	me-
4F	-is.
=151-	=151-
(8G	Hu-
8A)	.
8G	-ius
4G	i-
8G	-gi-
8G	-tur
8G	sanc-
=152-	=152-
8G	-ti-
8G	-fi-
(8G	-ca-
8A)	.
(8A	-ti-
8G)	.
4F	-o
=153-	=153-
(4G	noc-
4A	.
4G)	.
4F	-tis.
=154-	=154-
4A	fu-
8B	.
8A	.
4G	.
4F	-gat
=155-	=155-
(8G	sce-
8A)	.
(8G	-le-
8F)	.
4F	-ra.
16A	cul-
16B	.
16A	.
16G	.
=156-	=156-
4F	-pas
(4G	la-
8A	.
8G)	.
4F	-vat.
=157-	=157-
4F	et
(8F	red-
8G)	.
8G	-dit
4G	in-
8F	-no-
=158-	=158-
(16G	-cen-
16A	.
16G	.
16A)	.
16G	.
8F	.
(16F	-ti-
16G	.
16A)	.
(16G	-am
16A	.
8G)	.
16F	lap-
16F	-sis.
=159-	=159-
(16G	Me-
8A)	.
(16A	-stis
8G)	.
8F	le-
(16G	-ti-
8A)	.
(16G	-ti-
8F)	.
8F	-am.
=160-	=160-
8A	fu-
8B	.
8A	.
8G	.
4F	-gat
(8G	o-
8A)	.
=161-	=161-
(8G	-di-
8F)	.
4F	-a.
4G	con-
(8G	-cor-
8A)	.
=162-	=162-
(8A	-di-
&(8G&))	.
8F	-am
(8G	pa-
8A	.
8G)	.
4F	-rat.
=163-	=163-
4F	et
(4G	cur-
8A	.
8G	.
4A)	.
=164-	=164-
8G	.
8F	.
(8F	-bat
8G	.
4A)	.
(8G	im-
8A	.
=165-	=165-
4G)	.
4F	-pe-
(8E	-ri-
8F)	.
4F	-a.
=166-	=166-
(8G	In
8A)	.
4G	hu-
4G	-ius
4G	i-
=167-	=167-
4G	-gi-
(8G	-tur
8A)	.
(8A	noc-
8G)	.
4F	-tis
=168-	=168-
(4G	gra-
8A)	.
(4G	-ti-
8F)	.
4F	-a
=169-	=169-
8A	su-
8G	-sci-
8G	-pe
8G	sanc-
8F	-te
(16F	pa-
16G)	.
8G	-ter
8G	in-
=170-	=170-
8G	-cen-
8F	-si
(16F	hu-
16G)	.
8G	-ius
8G	sa-
8G	-cri-
8G	-fi-
8G	-ci-
=171-	=171-
(16G	-um
16A)	.
(16A	ves-
16G)	.
4F	-per-
(8G	-ti-
8A	.
8G)	.
8F	-num.
=172-	=172-
8F	quod
8A	ti-
8G	-bi
16G	in
8F	hac
(16F	ce-
16G)	.
16G	-re-
8G	-i
16G	o-
16G	-bla-
=173-	=173-
8G	-ti-
(16G	-o-
16A)	.
(16A	-ne
16G)	.
8F	sol-
(16G	-lem-
16A	.
8G)	.
16F	-ne.
8F	per
16F	mi-
=174-	=174-
8F	-ni-
4A	-stro-
8G	-rum
(8F	ma-
8G)	.
4G	-nus
=175-	=175-
8G	de
8G	o-
(16G	-pe-
16A)	.
(16A	-ri-
16G)	.
8F	-bus
(16G	a-
16A	.
16G)	.
8F	-pum.
16G	sa-
=176-	=176-
8F	-cro-
8G	-sanc-
8F	-ta
(16G	red-
16A	.
16G	.
16A)	.
16G	.
16F	.
4A	-dit
=177-	=177-
(8G	ec-
16A	.
16G)	.
4F	-cle-
(8E	-si-
8F)	.
4F	-a
=178-	=178-
(8G	Sed
8A)	.
8G	iam
8G	co-
8G	-lum-
8F	-ne
(8F	hu-
8G)	.
=179-	=179-
8G	-ius
8G	pre-
(8G	-co-
8A)	.
(8A	-ni-
8G)	.
4F	-a
=180-	=180-
(4G	no-
8A)	.
(4G	-vi-
8F)	.
4F	-mus.
=181-	=181-
8F	quam
8F	in
8F	ho-
8A	-no-
8G	-rem
(8F	de-
8G)	.
8G	-i
=182-	=182-
8G	ru-
8G	-ti-
4F	-lans
(8G	i-
8A	.
8G	.
8A)	.
=183-	=183-
8G	.
8F	.
(8F	-gnis
16G	.
16A)	.
(8G	ac-
16A	.
16G)	.
8F	-cen-
8F	-dit.
=184-	=184-
(8G	Qui
8A)	.
4G	li-
4G	-cet
4G	di-
=185-	=185-
(4G	-vi-
4A)	.
(4A	-sus
4G)	.
=186-	=186-
4F	in
(4G	par-
8A	.
8G)	.
4F	-tes.
=187-	=187-
4F	mu-
8F	-tu-
4A	-a-
8G	-ti
(8F	lu-
8G)	.
=188-	=188-
8G	-mi-
8G	-nis
8G	de-
8F	-tri-
(8G	-men-
8A	.
8G	.
8A)	.
=189-	=189-
8G	.
8F	.
4A	-ta
(8G	non
16A	.
16G)	.
8F	no-
8F	-vit.
=190-	=190-
(8G	A-
8A)	.
4G	-li-
4G	-tur
4G	li-
=191-	=191-
(4G	-quan-
4A)	.
(4A	-ti-
4G)	.
=192-	=192-
4F	-bus
(4G	ce-
8A	.
8G)	.
4F	-ris.
=193-	=193-
8F	quas
8F	in
8F	sub-
8A	-stan-
8G	-ti-
8G	-am
16G	pre-
16G	-ti-
16G	-o-
16G	-se
=194-	=194-
8G	hu-
16F	-ius
(16F	lam-
16G)	.
16G	-pa-
16G	-dis.
8G	a-
16F	-pis
(16G	ma-
16A	.
16G	.
16A)	.
16G	.
16F	.
=195-	=195-
(8F	-ter
16G	.
16A)	.
(8G	e-
16A	.
16G)	.
4F	-du-
4F	-xit.
=196-	=196-
(8G	A-
8A)	.
4G	-pis
4G	ce-
4G	-te-
=197-	=197-
4G	-ris
8G	que
8G	sub-
(8G	-iec-
8A)	.
(8A	-ta
8G)	.
=198-	=198-
4F	sunt
(8G	ho-
8A)	.
(8G	-mi-
8F)	.
4F	-nis.
=199-	=199-
4F	a-
4F	-ni-
4G	man
4F	-ti-
=200-	=200-
(8G	-bus
8A	.
8G	.
8A)	.
8G	.
8F	.
(8F	an-
16G	.
16A)	.
=201-	=201-
(4G	-te-
8A	.
8G)	.
4F	-cel-
4F	-lit.
=202-	=202-
(8G	Cum
8A)	.
4G	sit
8G	mi-
8G	-ni-
4G	-ma
=203-	=203-
4G	cor-
4G	-po-
(8G	-ris
8A)	.
(8A	par-
8G)	.
=204-	=204-
4F	-vi-
(4G	-ta-
8A	.
8G)	.
4F	-te.
=205-	=205-
8F	in-
8A	-gen-
8G	-tes
(16F	a-
16G)	.
8G	-ni-
8G	-mos.
8F	an-
8G	-gu-
=206-	=206-
4F	-sto
(16G	ver-
16A	.
16G	.
16A)	.
16G	.
16F	.
8A	-sat
(8G	in
16A	.
16G)	.
=207-	=207-
4F	pec-
(4E	-to-
4F)	.
4F	-re.
=208-	=208-
(16G	Vi-
16A)	.
8G	-ri-
(8G	-bus
8A)	.
(8A	in-
8G)	.
8F	bec
(8G	-cil-
=209-	=209-
16A	.
16G)	.
8F	-lis.
8F	sed
(16G	for-
16A	.
16G	.
16A)	.
16G	.
16F	.
4A	-tis
=210-	=210-
(8G	in-
16A	.
16G)	.
4F	-ge-
(8E	-ni-
8F)	.
4F	-o.
=211-	=211-
(8G	Hec
8A)	.
4G	ex-
4G	-plo-
4G	-ra-
=212-	=212-
4G	-ta
(4G	tem-
8A)	.
(4A	-po-
8G)	.
=213-	=213-
4F	-rum
(4G	vi-
8A	.
8G)	.
4F	-ces.
=214-	=214-
8F	cum
8F	ca-
8A	-ni-
8G	-ti-
8G	-em
8G	pru-
8F	-i-
(16F	-no-
16G)	.
=215-	=215-
4G	-sam
4G	hi-
(8G	-ber-
8A)	.
(8A	-na
8G)	.
=216-	=216-
4F	po-
(8G	-su-
8A)	.
(8G	-e-
8F)	.
4F	-rint.
=217-	=217-
8F	et
8F	gla-
8F	-ci-
8A	-a-
8G	-li
(8F	se-
8G)	.
8G	-nio
=218-	=218-
8G	ver-
8F	-ni
(16F	tem-
16G)	.
16G	-po-
8G	-ris
16G	im-
8G	-mo-
8G	-de-
(16G	-ra-
16A)	.
=219-	=219-
(16A	-ta
16G)	.
8F	de-
(8G	-ter-
8A)	.
(8G	-se-
8F)	.
4F	-rint.
=220-	=220-
8A	sta-
8G	-tim
8G	pro-
8F	-de-
(16F	-un-
16G)	.
8G	-di
8G	ad
8F	la-
=221-	=221-
8G	-bo-
8F	-rem
(8G	cu-
8A	.
8G	.
8A)	.
8G	.
8F	.
=222-	=222-
4A	-ra
(8G	suc-
8A	.
8G)	.
8F	-ce-
4F	-dit.
=223-	=223-
(16G	Di-
16A)	.
8G	-sper-
(16G	-se-
16A)	.
(16A	-que
16G)	.
8F	per
(8G	a-
16A	.
16G)	.
8F	-gros.
=224-	=224-
8F	li-
8A	-bra-
8G	-tis
(8G	pau-
8A)	.
(4A	-lu-
8G)	.
=225-	=225-
4F	-lum
(4G	pen-
8A	.
8G)	.
4F	-nis.
=226-	=226-
4A	cru-
4G	-ri-
4G	-bus
4F	su-
=227-	=227-
(8G	-spen-
8A	.
8G	.
8A)	.
8G	.
8F	.
4A	-sis
=228-	=228-
(4G	in-
8A	.
8G)	.
4F	-si-
4F	-dunt.
=229-	=229-
(4G	Par-
4A)	.
4G	-tim
4G	o-
=230-	=230-
4G	-re
(8G	le-
8A)	.
(8A	-ge-
8G)	.
4F	-re
=231-	=231-
(4G	flo-
8A)	.
(4G	scu
8F)	.
4F	-los.
=232-	=232-
8F	o-
8F	-ne-
8A	-ra-
8G	-tis
8G	vic-
8G	-tu-
4G	-a-
=233-	=233-
8G	-li-
8F	-bus
8G	su-
8F	-is
(8G	ad
8A	.
16G	.
16A)	.
16G	.
16F	.
=234-	=234-
(8F	ca-
16G	.
16A)	.
(8G	-stra
16A	.
16G)	.
8F	re-
(16E	-me-
16F)	.
4F	-ant.
=235-	=235-
(8G	I-
8A)	.
4G	-bi-
4G	-que
4G	a-
=236-	=236-
4G	-li-
4G	-e
4G	i-
4G	-ne-
=237-	=237-
4G	-sti-
4G	-ma-
4G	-bi-
(8G	-li
8A)	.
=238-	=238-
(8A	ar-
8G)	.
8F	-te
(16G	cel-
16A)	.
(16G	-lu-
16F)	.
8F	-las.
8F	te-
8G	-na-
=239-	=239-
4F	-ci
(16G	glut-
16A	.
16G	.
16A)	.
16G	.
16F	.
(8F	-ti-
16G	.
16A)	.
(8G	-no
=240-	=240-
8A	.
8G)	.
4F	in-
(8E	stru
8F)	.
4F	-unt.
=241-	=241-
(8G	A-
8A)	.
4G	-li-
4G	-e
4G	li-
=242-	=242-
4G	-quan-
4G	-ti-
(8G	-a
8A)	.
(8A	mel-
8G)	.
=243-	=243-
4F	-la
(4G	sti-
8A	.
8G)	.
4F	-pant.
=244-	=244-
4A	a-
4G	-li-
4F	-e
(8F	ver-
8G)	.
=245-	=245-
4G	-tunt
(4G	flo-
8A)	.
(4A	-res
8G)	.
=246-	=246-
4F	in
(4G	ce-
8A	.
8G)	.
4F	-ram.
=247-	=247-
4A	a-
4G	-li-
4G	-e
4G	o-
=248-	=248-
(4G	-re
8A)	.
(4A	na-
8G)	.
4F	-tos
=249-	=249-
(4G	fin-
4A	.
4G)	.
4F	-gunt.
=250-	=250-
8A	a-
8G	-li-
8G	-e
4G	col-
8G	-lec-
4G	-tum
=251-	=251-
8F	e
8G	fo-
8G	-li-
8F	-is
(8G	nec-
8A	.
16G	.
16A)	.
16G	.
16F	.
=252-	=252-
(16F	-tar
16G	.
8A)	.
(16G	in-
16A	.
8G)	.
4F	-clu-
4F	-dunt.
=253-	=253-
(4G	O
4A)	.
4G	ve-
4G	-re
=254-	=254-
4G	mi-
(4G	-ra-
8A)	.
(4A	-bi-
8G)	.
=255-	=255-
4F	-lis
(4G	a-
8A	.
8G)	.
4F	-pis.
=256-	=256-
8F	cu-
8F	-ius
8F	nec
8A	se-
4G	-xu
(8G	ma-
8A)	.
=257-	=257-
(8A	scu
8G)	.
8F	-li
(16G	vi-
8A)	.
(16G	-o-
8F)	.
8F	-lant.
(16G	fe-
16A)	.
=258-	=258-
(8A	-tus
8G)	.
8F	non
(8G	quas-
8A	.
8G)	.
4F	-sant.
=259-	=259-
4F	nec
4G	fi-
4G	-li-
4F	-i
=260-	=260-
8G	de-
8F	stru
(16G	.
16A	.
16G	.
8A)	.
16G	.
8F	.
4F	-unt
=261-	=261-
(8F	ca-
8G	.
8A)	.
(8G	-sti-
8A	.
8G)	.
8F	-ta-
8F	-tem.
=262-	=262-
(8G	Si-
8A)	.
4G	-cut
8G	sanc-
8G	-ta
8F	con-
(16F	-ce-
16G)	.
=263-	=263-
4G	-pit
(4G	vir-
8A)	.
(4A	-go
8G)	.
=264-	=264-
4F	ma-
(4G	-ri-
8A	.
8G)	.
4F	-a
=265-	=265-
8A	vir-
(8A	.
8G)	.
8F	-go
(8G	pe-
8A)	.
(8G	-pe-
8F)	.
=266-	=266-
8F	-rit.
8F	et
(8G	vir-
8A	.
8G	.
8A)	.
8G	.
8F	.
=267-	=267-
(8F	-go
16G	.
16A)	.
(8G	per-
8A	.
8G)	.
8F	man
4F	-sit.
=268-	=268-
8G	O
(16G	ve-
16A)	.
(16A	-re
16G)	.
8F	be-
(16G	-a-
16A)	.
(16G	-ta
16F)	.
8F	nox.
8G	que
=269-	=269-
8G	spo-
8G	-li-
(16G	-a-
16A)	.
(16A	-vit
16G)	.
8F	e-
(16G	-gyp-
16A)	.
(16G	-ti-
16F)	.
8F	-os.
=270-	=270-
16F	di-
(16G	-ta-
16A	.
16G	.
16A)	.
16G	.
16F	.
(16F	-vit
16G	.
16A)	.
(16G	he-
16A	.
16G)	.
8F	-bre-
16F	-os.
=271-	=271-
(16G	Nox
16A)	.
(16G	in
16A)	.
(16A	qua
16G)	.
8F	ter-
(16G	-re-
16A	.
8G)	.
8F	-nis.
8F	ce-
=272-	=272-
8G	-le-
8F	-sti-
(8G	.
16A	.
16G	.
8A)	.
8G	.
8F	.
8A	-a
=273-	=273-
(8G	iun-
8A	.
4G)	.
4F	-gun-
4F	-tur.
=274-	=274-
8G	O-
(8G	-ra-
8A)	.
(8A	-mus
8G)	.
8F	te
(8G	do-
8A)	.
=275-	=275-
(8G	-mi-
8F)	.
8F	-ne.
4F	ut
8A	ce-
8G	-re-
8F	-us
=276-	=276-
(8F	i-
8G)	.
4G	-ste
4G	in
4F	ho-
=277-	=277-
(8F	-no-
8G)	.
4G	-rem
4G	no-
4G	-mi-
=278-	=278-
4G	-nis
4G	tu-
(8G	-i
8A)	.
(8A	con-
8G)	.
=279-	=279-
4F	-se-
(4G	-cra-
8A	.
8G)	.
4F	-tus.
=280-	=280-
8F	ad
8A	noc-
8G	-tis
(16F	hu-
16G)	.
8G	-ius
8G	ca-
8G	-li-
8G	-gi-
=281-	=281-
(16G	-nem
16A)	.
(16A	de-
16G)	.
8F	stru
(16G	-en-
16A	.
16G)	.
16F	-dam.
8F	in-
16F	-de-
8G	-fi-
16F	-ci-
=282-	=282-
(16G	-ens
16A	.
16G	.
16A)	.
16G	.
16F	.
(16F	per-
16G	.
16A)	.
(16G	-se-
16A	.
16G)	.
16F	-ve-
16F	-ret.
=283-	=283-
(8G	In
8A)	.
8G	o-
4G	-do-
8G	-rem
4G	su-
=284-	=284-
4G	-a-
4G	-bi-
(8G	-ta-
8A)	.
(8A	-tis
8G)	.
=285-	=285-
4F	ac-
(4G	-cep-
8A	.
8G)	.
4F	-tus.
=286-	=286-
8F	su-
4A	-per-
8G	-nis
8G	lu-
8F	-mi-
8G	-na-
8F	-ri-
=287-	=287-
(8G	-bus
8A	.
8G	.
8A)	.
8G	.
8F	.
(8F	mi-
16G	.
16A)	.
=288-	=288-
(4G	-sce-
8A	.
8G)	.
4F	-a-
4F	-tur.
=289-	=289-
(8G	Flam-
8A)	.
4G	-mam
4G	e-
4F	-ius
=290-	=290-
(8F	lu-
8G)	.
8G	-ci-
8G	-fer
8G	ma-
8G	-tu-
(8G	-ti-
8A)	.
=291-	=291-
(8A	-nus
8G)	.
8F	in-
(8G	-ve-
8A)	.
(8G	-ni-
8F)	.
8F	-at.
=292-	=292-
8A	il-
8G	-le
8G	in-
8F	-quam
(4F	lu-
8G)	.
8G	-ci-
=293-	=293-
8G	-fer.
4F	qui
(8G	nes-
16A	.
16G	.
8A)	.
8G	.
8F	.
=294-	=294-
(8F	-cit
16G	.
16A)	.
(8G	oc-
8A	.
8G)	.
8F	-ca-
8F	-sum.
=295-	=295-
(16G	Il-
16A)	.
8G	-le
8G	qui
8G	re-
(16G	-gres-
16A)	.
(16A	-sus
16G)	.
8F	ab
(16G	in-
16A)	.
=296-	=296-
(16G	-fe-
16F)	.
8F	-ris.
16F	hu-
8A	-ma-
16G	-no
(16F	ge-
16G)	.
8G	-ne-
16G	-ri
16F	se-
(16G	-re-
16A	.
=297-	=297-
16G	.
16A)	.
16G	.
16F	.
4A	-no
(16G	il-
16A	.
8G)	.
8F	-lu-
8F	-xit.
=298-	=298-
(4G	Pre-
4A)	.
4G	-ca-
4G	-mur
=299-	=299-
(8G	er-
8A)	.
(8A	-go
8G)	.
4F	te
(4G	do-
=300-	=300-
8A)	.
(4G	-mi-
8F)	.
4F	-ne.
4F	ut
=301-	=301-
8A	nos
8G	fa-
8G	-mu-
8G	-los
8G	tu-
(16G	-os
16A)	.
(16A	om-
16G)	.
8F	-nem
=302-	=302-
(8G	cle-
16A	.
16G)	.
8F	-rum.
8G	et
8G	de-
8G	-vo-
(16G	-tis-
16A)	.
(16A	-si-
16G)	.
=303-	=303-
4F	-mum
(8G	po-
8A)	.
(8G	-pu-
8F)	.
4F	-lum.
=304-	=304-
4F	u-
8A	-na
8G	cum
8G	be-
8G	-a-
4G	-tis-
=305-	=305-
8G	-si-
8G	-mo
8G	pa-
8F	-tre
(8F	no-
8G)	.
4G	-stro
=306-	=306-
8G	pa-
(8G	-pa
16A)	.
(8A	[il.]
16G)	.
8F	.
(8G	.
16A	.
16G)	.
8F	.
=307-	=307-
4F	et
4F	an-
4A	-ti-
4G	-sti-
=308-	=308-
4G	-te
(4G	no-
4A)	.
(8A	-stro
8G)	.
=309-	=309-
4F	il.
(4G	.
8A	.
8G)	.
4F	.
=310-	=310-
8F	in
8A	his
8G	pa-
8G	-scha-
8G	-li-
8F	-bus
(8F	gau-
8G)	.
=311-	=311-
8G	-di-
8G	-is.
8G	con-
8F	ser
(8G	va
8A	.
8G	.
8A)	.
=312-	=312-
8G	.
8F	.
(8F	-re
16G	.
16A)	.
(8G	dig-
16A	.
16G)	.
8F	-ne-
8F	-ris.
=313-	=313-
(4G	Me-
4A)	.
4G	-men-
4G	-to
=314-	=314-
(4G	e-
8A)	.
(4A	-ti-
8G)	.
4F	-am
=315-	=315-
(4G	do-
8A)	.
(4G	-mi-
8F)	.
4F	-ne.
=316-	=316-
8F	fa-
8F	-mu-
8A	-lo-
8G	-rum
8F	tu-
(16F	-o-
16G)	.
8G	-rum
8G	im-
=317-	=317-
8G	-pe-
8G	-ra-
(8G	-to-
16A)	.
(8A	-rum
16G)	.
8F	no-
(8G	-stro-
16A	.
16G)	.
=318-	=318-
4F	-rum.
4F	[il.]
4F	et
4F	[il.]
=319-	=319-
8G	(et)
8F	ce-
8A	-le-
8G	-stem
(16F	il-
16G)	.
8G	-lis
8G	de
8G	tu-
=320-	=320-
8F	-o
(16F	thro-
16G)	.
8G	-no
8G	con-
(16G	-ce-
8A)	.
(16A	-de
8G)	.
8F	vic-
=321-	=321-
(4G	-to-
8A)	.
(4G	-ri-
8F)	.
4F	-am.
=322-	=322-
4F	cum
8G	om-
4G	-ni
8F	e-
4G	-xer-
=323-	=323-
8F	-ci-
(8G	.
8A	.
8G	.
8A)	.
8G	.
8F	.
(8F	-tu
=324-	=324-
8G	.
8A)	.
(8G	e-
8A	.
8G)	.
8F	-o-
4F	-rum.
=325-	=325-
(4G	Re-
4A)	.
4G	spi
4G	-ce
=326-	=326-
(4G	que-
8A)	.
(4A	-su-
8G)	.
4F	-mus
=327-	=327-
(8G	do-
4A)	.
(8G	-mi-
4F)	.
4F	-ne.
=328-	=328-
8F	su-
8F	-per
8F	de-
8F	-vo-
8A	-tis-
8G	-si-
8G	-mos
8G	fa-
=329-	=329-
8G	-mu-
8G	-los
8G	tu-
(8G	-os
8A)	.
(8A	du-
8G)	.
8F	-ces
=330-	=330-
(4G	no-
4A	.
4G)	.
4F	-stros.
=331-	=331-
8F	quo-
8F	-rum
8A	tu
8G	de-
8G	-us
8G	de-
8F	-si-
(8F	-de-
=332-	=332-
8G)	.
(8G	-ri-
8A)	.
(8A	-a
8G)	.
8F	vo-
(8G	.
8A)	.
=333-	=333-
(8A	-ta
8G)	.
8F	pre-
(8G	-no-
8A	.
8G)	.
4F	-scens.
=334-	=334-
8F	i-
8F	nef
8A	fa
8G	-bi-
8G	-lis
8G	pi-
8F	-e-
(16F	-ta-
16G)	.
=335-	=335-
8G	-tis
8G	et
16G	mi-
8G	-se-
16G	-ri-
8G	-cor-
8G	-di-
(16G	-e
16A)	.
(16A	tu-
16G)	.
=336-	=336-
4F	-e
(8G	mu-
8A)	.
(8G	-ne-
8F)	.
4F	-re.
=337-	=337-
4F	tran-
8G	quil
8G	-los
8F	per-
8G	-pe-
8G	-tu-
8F	-e
=338-	=338-
(8G	pa-
8A	.
8G	.
8A)	.
(8G	.
8F)	.
4A	-cis
=339-	=339-
(8G	ac-
16A	.
16G)	.
4F	com
(8E	-mo-
8F)	.
4F	-da
=340-	=340-
(4G	Ut
4A)	.
4G	in
4G	his
=341-	=341-
4G	pa-
(8G	-scha-
8A)	.
(8A	-li-
8G)	.
4F	-bus
=342-	=342-
(4G	gau-
8A)	.
(4G	-di-
8F)	.
4F	-is.
=343-	=343-
4F	as-
4A	-si-
4G	-du-
4G	-a
=344-	=344-
(4G	pro-
4A)	.
(4A	-tec-
4G)	.
=345-	=345-
4F	-ti-
(4G	-o-
8A	.
8G)	.
4F	-ne.
=346-	=346-
8A	re-
8G	-ge-
(8G	-re
16A)	.
(8A	gu-
16G)	.
8F	-ber-
(8G	-na-
8A	.
=347-	=347-
8G)	.
8F	-re.
8F	et
8G	con-
8F	ser
(16G	va
16A	.
16G	.
16A)	.
16G	.
16F	.
=348-	=348-
4A	-re
(8G	dig-
8A	.
8G)	.
4F	-ne-
8F	-ris.
=349-	=349-
(8G	Et
8A)	.
4G	his
4G	qui
4G	ti-
=350-	=350-
8F	-bi
(16F	of-
16G)	.
4G	-fe-
4G	-runt
4G	hoc
=351-	=351-
4G	sa-
4G	-cri-
(8G	-fi-
8A)	.
(8A	-ci-
8G)	.
=352-	=352-
4F	-um
(4G	lau-
8A	.
8G)	.
4F	-dis.
=353-	=353-
4A	pre-
4G	-mi-
4G	-a
4F	e-
=354-	=354-
4G	-ter-
4F	-na
(4G	.
4A	.
=355-	=355-
8G	.
8A)	.
8G	.
8F	.
(4F	lar-
8G	.
8A)	.
=356-	=356-
(4G	-gi-
8A	.
8G)	.
4F	-a-
4F	-ris.
=357-	=357-
4G	Per
4A	do-
4G	-mi-
4G	-num
=358-	=358-
4G	no-
4G	-strum
4G	ie-
4F	-sum
=359-	=359-
(8F	chri-
8G)	.
4G	-stum
(8G	fi-
8A)	.
(8A	-li-
8G)	.
=360-	=360-
4F	-um
(4G	tu-
8A	.
8G)	.
4F	-um.
=361-	=361-
4F	qui
4F	ven-
4A	-tu-
4G	-rus
=362-	=362-
4G	est
4G	iu-
4F	-di-
(8F	-ca-
8G)	.
=363-	=363-
4G	-re
(8G	vi-
8A)	.
(8A	-vos
8G)	.
4F	et
=364-	=364-
(8G	mor-
4A)	.
(8G	-tu-
4F)	.
4F	-os.
=365-	=365-
4G	et
4G	om-
4G	-ne
4G	se-
=366-	=366-
(8G	-cu-
8A)	.
(8A	-lum
8G)	.
8F	per
(8G	ig-
16A	.
16G)	.
8F	-nem.
=367-	=367-
8A	vi-
8G	-vens
(8G	et
8A)	.
(8A	reg-
8G)	.
4F	-nans
=368-	=368-
(4G	de-
4A	.
4G)	.
4F	-us.
=369-	=369-
4F	per
4G	om-
4G	-ni-
4F	-a
=370-	=370-
4G	se-
4F	-cu-
(8G	-la
8A	.
8G	.
8A)	.
=371-	=371-
(8G	.
8F)	.
(8F	se-
8G	.
8A)	.
(8G	-cu-
8A	.
8G)	.
=372-	=372-
4F	-lo-
4F	-rum.
4E	a-
4F	-men.
=373-	=373-
1r	.
=374-	=374-
1r	.
=375-	=375-
1r	.
=376-	=376-
1r	.
==	==
*-	*-
!!!hum2abc: -p "%%nostems" -M none
!!!ENC: Elsa De Luca
!!!RWG: Rhythms and barlines are for alignment only, not found in source.
!!!YEC: Copyright 2009, Elsa De Luca
!!!title: @{OTL}, @{SMS}
